assets/images/logo-uni-ie.svg

<svg fill="none" height="36" viewBox="0 0 41 36" width="41" xmlns="http://www.w3.org/2000/svg" xmlns:xlink="http://www.w3.org/1999/xlink"><clipPath id="a"><path d="m0 .962891h40.7306v34.9119h-40.7306z"/></clipPath><g clip-path="url(#a)" fill="#001b3c"><path d="m16.1432 8.89453c-4.5839 0-8.29945 3.73857-8.29945 8.35087v.1093c0 4.8979 3.94095 8.8633 8.80875 8.8633 2.9224 0 5.5023-1.4283 7.1054-3.6294l-3.415-2.5455c-.693 1.3106-2.0622 2.2095-3.6403 2.2095-1.9371 0-3.5569-1.3442-3.9994-3.1505h11.5223c.0083-.0167.0083-.0252.0167-.042.0167-.084.0417-.168.05-.2521.092-.5041.1421-1.0333.1421-1.5626.0082-4.6123-3.7073-8.35087-8.2911-8.35087zm-3.0477 6.45217c.3925-1.3945 1.6617-2.4196 3.1729-2.4196 1.5113 0 2.7803 1.0251 3.1728 2.4196z"/><path d="m6.17736 8.89453h-5.630485v17.32347h5.630485z"/><path d="m3.36857 7.73851c1.8604 0 3.36855-1.51676 3.36855-3.3878s-1.50815-3.387819-3.36855-3.387819c-1.86041 0-3.36857 1.516779-3.36857 3.387819s1.50816 3.3878 3.36857 3.3878z"/><path d="m.230469 33.8162c0 1.1369.817711 1.9093 2.040601 1.9093 1.21585 0 2.03356-.7724 2.03356-1.9093v-3.2537h-.91722v3.2465c0 .6865-.44789 1.0727-1.12337 1.0727s-1.11635-.3862-1.11635-1.0655v-3.2537h-.917221z"/><path d="m5.51562 35.6396h.91718v-2.9246c0-.3004-.04985-.7867-.04985-.7867h.01431s.22744.4934.41943.7867l1.91276 2.9246h.91005v-5.0771h-.91005v2.9319c0 .3003.04976.7865.04976.7865h-.0143s-.22745-.4934-.41943-.7865l-1.91268-2.9319h-.91718z"/><path d="m10.918 35.6396h.9172v-5.0771h-.9172z"/><path d="m14.3064 35.6396h.9101l1.8416-5.0771h-.9813l-1.1162 3.3109c-.0996.2931-.1848.7437-.192.7437h-.0143c-.007 0-.0923-.4506-.192-.7437l-1.109-3.3109h-.9885z"/><path d="m17.6875 35.6396h3.1357v-.7937h-2.2185v-1.3659h1.6994v-.7936h-1.6994v-1.3301h2.1046v-.7938h-3.0218z"/><path d="m21.7812 35.6396h.9173v-1.8949h.8817l1.0024 1.8949h1.0239l-1.038-1.8949c-.0995-.1788-.1707-.2503-.1707-.2503v-.0144c.5332-.2145.8533-.7794.8533-1.3871 0-.6723-.3201-1.1586-.8249-1.3874-.2204-.1001-.4691-.143-1.0167-.143h-1.6283zm.9173-2.6959v-1.5874h.6967c.7182 0 .9244.3003.9244.7866 0 .5077-.3058.8008-.7963.8008z"/><path d="m26.0742 35.0316s.6186.6937 1.742.6937c1.0523 0 1.6638-.6793 1.6638-1.4873 0-1.6234-2.3748-1.4017-2.3748-2.3027 0-.3575.3341-.6078.7608-.6078.6328 0 1.1163.4433 1.1163.4433l.3982-.7508s-.512-.5434-1.5074-.5434c-.967 0-1.6922.6293-1.6922 1.4731 0 1.5588 2.382 1.4015 2.382 2.3097 0 .4146-.3485.6149-.7325.6149-.711 0-1.2584-.5362-1.2584-.5362z"/><path d="m30.3945 35.6396h.9173v-5.0771h-.9173z"/><path d="m33.6371 35.6396h.9172v-4.2833h1.6567v-.7938h-4.2305v.7938h1.6566z"/><path d="m38.1351 35.6396h.9172v-2.1238l1.678-2.9533h-1.038l-.7821 1.4946c-.1636.3145-.3058.6793-.3058.6793h-.0143c-.007.0072-.1421-.3648-.3057-.6793l-.7892-1.4946h-1.0382l1.6781 2.9533z"/></g></svg>

<svg width="41" height="36" viewBox="0 0 41 36" fill="none" xmlns="http://www.w3.org/2000/svg">
<g clip-path="url(#clip0_2347_6734)">
<path d="M16.1432 8.89453C11.5593 8.89453 7.84375 12.6331 7.84375 17.2454V17.3547C7.84375 22.2526 11.7847 26.218 16.6525 26.218C19.5749 26.218 22.1548 24.7897 23.7579 22.5886L20.3429 20.0431C19.6499 21.3537 18.2807 22.2526 16.7026 22.2526C14.7655 22.2526 13.1457 20.9084 12.7032 19.1021H24.2255C24.2338 19.0854 24.2338 19.0769 24.2422 19.0601C24.2589 18.9761 24.2839 18.8921 24.2922 18.808C24.3842 18.3039 24.4343 17.7747 24.4343 17.2454C24.4425 12.6331 20.727 8.89453 16.1432 8.89453ZM13.0955 15.3467C13.488 13.9522 14.7572 12.9271 16.2684 12.9271C17.7797 12.9271 19.0487 13.9522 19.4412 15.3467H13.0955Z" fill="#001B3C"/>
<path d="M6.17736 8.89453H0.546875V26.218H6.17736V8.89453Z" fill="#001B3C"/>
<path d="M3.36857 7.73851C5.22897 7.73851 6.73712 6.22175 6.73712 4.35071C6.73712 2.47967 5.22897 0.962891 3.36857 0.962891C1.50816 0.962891 0 2.47967 0 4.35071C0 6.22175 1.50816 7.73851 3.36857 7.73851Z" fill="#001B3C"/>
<path d="M0.230469 33.8162C0.230469 34.9531 1.04818 35.7255 2.27107 35.7255C3.48692 35.7255 4.30463 34.9531 4.30463 33.8162V30.5625H3.38741V33.809C3.38741 34.4955 2.93952 34.8817 2.26404 34.8817C1.58856 34.8817 1.14769 34.4955 1.14769 33.8162V30.5625H0.230469V33.8162Z" fill="#001B3C"/>
<path d="M5.51562 35.6396H6.4328V32.715C6.4328 32.4146 6.38295 31.9283 6.38295 31.9283H6.39726C6.39726 31.9283 6.6247 32.4217 6.81669 32.715L8.72945 35.6396H9.6395V30.5625H8.72945V33.4944C8.72945 33.7947 8.77921 34.2809 8.77921 34.2809H8.76491C8.76491 34.2809 8.53746 33.7875 8.34548 33.4944L6.4328 30.5625H5.51562V35.6396Z" fill="#001B3C"/>
<path d="M10.918 35.6396H11.8352V30.5625H10.918V35.6396Z" fill="#001B3C"/>
<path d="M14.3064 35.6396H15.2165L17.0581 30.5625H16.0768L14.9606 33.8734C14.861 34.1665 14.7758 34.6171 14.7686 34.6171H14.7543C14.7473 34.6171 14.662 34.1665 14.5623 33.8734L13.4533 30.5625H12.4648L14.3064 35.6396Z" fill="#001B3C"/>
<path d="M17.6875 35.6396H20.8232V34.8459H18.6047V33.48H20.3041V32.6864H18.6047V31.3563H20.7093V30.5625H17.6875V35.6396Z" fill="#001B3C"/>
<path d="M21.7812 35.6396H22.6985V33.7447H23.5802L24.5826 35.6396H25.6065L24.5685 33.7447C24.469 33.5659 24.3978 33.4944 24.3978 33.4944V33.48C24.931 33.2655 25.2511 32.7006 25.2511 32.0929C25.2511 31.4206 24.931 30.9343 24.4262 30.7055C24.2058 30.6054 23.9571 30.5625 23.4095 30.5625H21.7812V35.6396ZM22.6985 32.9437V31.3563H23.3952C24.1134 31.3563 24.3196 31.6566 24.3196 32.1429C24.3196 32.6506 24.0138 32.9437 23.5233 32.9437H22.6985Z" fill="#001B3C"/>
<path d="M26.0742 35.0316C26.0742 35.0316 26.6928 35.7253 27.8162 35.7253C28.8685 35.7253 29.48 35.046 29.48 34.238C29.48 32.6146 27.1052 32.8363 27.1052 31.9353C27.1052 31.5778 27.4393 31.3275 27.866 31.3275C28.4988 31.3275 28.9823 31.7708 28.9823 31.7708L29.3805 31.02C29.3805 31.02 28.8685 30.4766 27.8731 30.4766C26.9061 30.4766 26.1809 31.1059 26.1809 31.9497C26.1809 33.5085 28.5629 33.3512 28.5629 34.2594C28.5629 34.674 28.2144 34.8743 27.8304 34.8743C27.1194 34.8743 26.572 34.3381 26.572 34.3381L26.0742 35.0316Z" fill="#001B3C"/>
<path d="M30.3945 35.6396H31.3118V30.5625H30.3945V35.6396Z" fill="#001B3C"/>
<path d="M33.6371 35.6396H34.5543V31.3563H36.211V30.5625H31.9805V31.3563H33.6371V35.6396Z" fill="#001B3C"/>
<path d="M38.1351 35.6396H39.0523V33.5158L40.7303 30.5625H39.6923L38.9102 32.0571C38.7466 32.3716 38.6044 32.7364 38.6044 32.7364H38.5901C38.5831 32.7436 38.448 32.3716 38.2844 32.0571L37.4952 30.5625H36.457L38.1351 33.5158V35.6396Z" fill="#001B3C"/>
</g>
<defs>
<clipPath id="clip0_2347_6734">
<rect width="40.7306" height="34.9119" fill="white" transform="translate(0 0.962891)"/>
</clipPath>
</defs>
</svg>
